X:1
T:Title
%%score { 1 | 2 }
L:1/8
M:9/8
K:F
V:1 treble nm="Grand Piano"
V:2 bass 
V:1
 z3 z3[Q:1/4=108] c2 d | c3- c2 A [EB]2 E | G3 .F3 F2 F | [DB]3- [DB]2 [Fd] [Fc]2 [FA] | %4
[M:3/4] [EG]6 |[M:3/8] [Ec]2 [Ed] |[M:9/8] c3- c2 A B2 E | [EG]3 .[DF]3 [DB]2 [DG] | %8
 [CF]3- [CF]2 [FA] [EA]2 [EG] |[M:3/4] F6 |[M:3/8] c2 c |[M:9/8] [Fd]3 .[Bf]3 [Fe]2 [Fd] | %12
 [Fc]3 .[FA]3 [Ac]2 c | c3- c2 A G2 F |[M:3/4] [EG]6 |[M:3/8] [Ec]2 [Ed] | %16
[M:9/8] [Fc]3- [Fc]2 [FA] [EB]2 E | [EG]3 .[DF]3 [DB]2 [G,DG] | %18
 [A,CF]3- [A,CF]2 [CFA] [CEA]2 [B,EG] |[M:3/4] [A,F]6 |] %20
V:2
 z3 z3 [F,A,F]2 [F,B,F] | [F,A,F]3- [F,A,F]2 [F,CF] [C,C]2 [C,G,C] | %2
 [F,B,C]3 .[F,A,C]3 [F,A,C]2 [F,A,C] | [B,,B,]3- [B,,B,]2 [B,,B,] [F,A,]2 [F,C] |[M:3/4] [C,C]6 | %5
[M:3/8] [C,B,]2 [C,B,] |[M:9/8] [F,A,F]3- [F,A,F]2 [F,CF] [G,CE]2 [C,C] | %7
 [C,B,]3 .[C,A,]3 [B,,G,]2 [B,,B,] | [C,A,]3- [C,A,]2 [C,C] [C,C]2 [C,B,] |[M:3/4] [F,A,]6 | %10
[M:3/8] [F,A,F]2 [F,A,F] |[M:9/8] [B,,B,]3 .[B,,D]3 [B,,C]2 [B,,B,] | %12
 [F,A,]3 .[F,C]3[K:treble] [F,F]2 [B,EG] | [A,CF]3- [A,CF]2 [F,CF][K:bass] [E,G,C]2 [D,=B,D] | %14
[M:3/4] [C,C]6 |[M:3/8] [C,B,]2 [C,B,] |[M:9/8] [F,A,]3- [F,A,]2 [F,C] [C,C]2 [C,C] | %17
 [C,B,]3 .[D,A,]3 [G,,G,]2 B,, | C,3- C,2 C, C,2 C, |[M:3/4] F,,6 |] %20

